X: 22110
T: Kolomeike
R: polka
M: 2/4
K: Dminor
|:A/d/f/a/ ^g/a/f/a/|^g/a/f/a/ ^g/f/e/d/|A/d/f/a/ ^g/a/f/a/|a2 d'2|
A/d/f/a/ ^g/a/f/a/|^g/a/f/a/ ^g/f/e/d/|f/e/g/f/ e/d/e/f/|d2 d2:|
|:dg2 g/^f/|g g2 g/^f/|g g2 g|gf a2|
^g/a/^g/f/ e/d/e/f/|dd/A/ dd|^g/a/^g/f/ e/d/e/f/|d2 d2:|
|:d'3 ^c'/e'/|d'3 ^c'/e'/|d'^c'/e'/ d'^c'/e'/|d'3z|
d'/c'/c'/=b/ =b/a/a/d'/|d'/c'/c'/=b/ =b/a/a/d'/|d'/c'/c'/=b/ =b/a/a/^g/|^g>f a2|
dg/f/ e/d/e/f/|dd/a/ dd|dg/f/ e/d/e/f/|d3 d:|

